icons/24x24_external_link_outline.svg

<svg width="24" height="24" viewBox="0 0 24 24" fill="none" xmlns="http://www.w3.org/2000/svg">
<path d="M9.96058 4.09572H5.9831C4.33558 4.09572 3 5.43131 3 7.07883V18.0169C3 19.6644 4.33558 21 5.9831 21H16.9212C18.5687 21 19.9043 19.6644 19.9043 18.0169V14.0394H17.9155V18.0169C17.9155 18.5661 17.4703 19.0113 16.9212 19.0113H5.9831C5.43393 19.0113 4.98874 18.5661 4.98874 18.0169V7.07883C4.98874 6.52966 5.43393 6.08446 5.9831 6.08446H9.96058V4.09572Z" fill="black"/>
<path d="M15.8176 5.06561L17.4554 5.07534L11.5287 11.002C11.1278 11.4029 11.1317 12.0569 11.5374 12.4626C11.9432 12.8683 12.5971 12.8722 12.998 12.4713L18.9247 6.54461L18.9344 8.1824C18.9378 8.7528 19.4029 9.21794 19.9733 9.22133C20.5437 9.22473 21.0034 8.76508 21 8.19468L20.9693 3.03071L15.8053 3.00002C15.2349 2.99663 14.7753 3.45628 14.7787 4.02667C14.7821 4.59707 15.2472 5.06221 15.8176 5.06561Z" fill="black"/>
</svg>

<svg width="24" height="24" fill="none" xmlns="http://www.w3.org/2000/svg"><path d="M9.96 4.096H5.984A2.983 2.983 0 0 0 3 7.079v10.938A2.983 2.983 0 0 0 5.983 21h10.938a2.983 2.983 0 0 0 2.983-2.983v-3.978h-1.988v3.978c0 .55-.446.994-.995.994H5.983a.994.994 0 0 1-.994-.994V7.079c0-.55.445-.995.994-.995h3.978V4.096Z" fill="#000"/><path d="m15.818 5.066 1.637.01-5.926 5.926c-.401.4-.397 1.055.008 1.46.406.406 1.06.41 1.461.01l5.927-5.927.01 1.637c.003.57.468 1.036 1.038 1.04A1.02 1.02 0 0 0 21 8.195l-.03-5.164L15.804 3a1.018 1.018 0 0 0-1.026 1.027c.003.57.468 1.035 1.039 1.039Z" fill="#000"/></svg>
